contributed-vectors/beauty_plus.svg

<svg xmlns="http://www.w3.org/2000/svg" xml:space="preserve" style="fill-rule:evenodd;clip-rule:evenodd;stroke-linejoin:round;stroke-miterlimit:2" viewBox="0 0 192 192"><path d="M164.5 21.5c0-5.519-4.481-10-10-10h-133c-5.519 0-10 4.481-10 10v133c0 5.519 4.481 10 10 10h133c5.519 0 10-4.481 10-10v-133Z" style="fill:#ffd6d4" transform="translate(8 8)"/><g transform="rotate(-9.999 220.837 -52.78) scale(.75064)"><path d="M39.589 64.725H55.79v62.228H39.589z" style="fill:#ffb0ac"/><path d="M39.589 64.725H55.79v62.228H39.589z" style="fill:#fdf5d9" transform="translate(16.201)"/><path d="M39.589 64.725H55.79v62.228H39.589z" style="fill:#bd9aff" transform="translate(32.402)"/><path d="M39.589 64.725H55.79v62.228H39.589z" style="fill:#e0f4e0" transform="translate(48.603)"/><path d="M39.589 64.725H55.79v62.228H39.589z" style="fill:#96dfd3" transform="translate(64.805)"/><path d="M39.589 64.725H55.79v62.228H39.589z" style="fill:#9abeff" transform="translate(81.006)"/><path d="M39.589 64.725H55.79v62.228H39.589z" style="fill:#f9de81" transform="translate(97.207)"/><circle cx="95.826" cy="95.839" r="18.298" style="fill:#4a4a4a"/><path d="M95.826 68.383c15.153 0 27.456 12.303 27.456 27.456 0 15.153-12.303 27.456-27.456 27.456-15.153 0-27.456-12.303-27.456-27.456 0-15.153 12.303-27.456 27.456-27.456Zm0 11.226c8.957 0 16.23 7.273 16.23 16.23s-7.273 16.23-16.23 16.23c-8.958 0-16.23-7.273-16.23-16.23s7.272-16.23 16.23-16.23Z" style="fill:#fff"/><path d="m86.719 58.016 1.386-8.139a.745.745 0 0 1 .735-.62h13.972c.363 0 .674.261.735.62l1.386 8.139h19.95v-1.125a2.505 2.505 0 0 1 2.504-2.504h12.108a2.505 2.505 0 0 1 2.504 2.504v1.125h3.758a13.367 13.367 0 0 1 13.367 13.367v48.912a13.367 13.367 0 0 1-13.367 13.367H45.895a13.367 13.367 0 0 1-13.367-13.367V71.383a13.367 13.367 0 0 1 13.367-13.367h3.959v-1.125a2.505 2.505 0 0 1 2.504-2.504h12.107a2.505 2.505 0 0 1 2.504 2.504v1.125h19.75Zm65.344 13.539a6.83 6.83 0 0 0-6.83-6.83H46.419a6.83 6.83 0 0 0-6.83 6.83v48.568a6.83 6.83 0 0 0 6.83 6.83h98.814a6.83 6.83 0 0 0 6.83-6.83V71.555Zm-50.742-13.539-.807-5.524a.746.746 0 0 0-.738-.637h-7.9a.746.746 0 0 0-.738.637l-.807 5.524h10.99Z" style="fill:#fff"/></g></svg>

<?xml version="1.0" encoding="UTF-8" standalone="no"?>
<!DOCTYPE svg PUBLIC "-//W3C//DTD SVG 1.1//EN" "http://www.w3.org/Graphics/SVG/1.1/DTD/svg11.dtd">
<svg width="100%" height="100%" viewBox="0 0 192 192" version="1.1" xmlns="http://www.w3.org/2000/svg" xmlns:xlink="http://www.w3.org/1999/xlink" xml:space="preserve" xmlns:serif="http://www.serif.com/" style="fill-rule:evenodd;clip-rule:evenodd;stroke-linejoin:round;stroke-miterlimit:2;">
    <g id="Layer1">
        <g transform="matrix(1,0,0,1,8,8)">
            <path d="M164.5,21.5C164.5,15.981 160.019,11.5 154.5,11.5L21.5,11.5C15.981,11.5 11.5,15.981 11.5,21.5L11.5,154.5C11.5,160.019 15.981,164.5 21.5,164.5L154.5,164.5C160.019,164.5 164.5,160.019 164.5,154.5L164.5,21.5Z" style="fill:rgb(255,214,212);"/>
        </g>
        <g transform="matrix(0.739238,-0.130348,0.130348,0.739238,12.5198,37.5465)">
            <rect x="39.589" y="64.725" width="16.201" height="62.228" style="fill:rgb(255,176,172);"/>
            <g transform="matrix(1,0,0,1,16.2011,0)">
                <rect x="39.589" y="64.725" width="16.201" height="62.228" style="fill:rgb(253,245,217);"/>
            </g>
            <g transform="matrix(1,0,0,1,32.4023,0)">
                <rect x="39.589" y="64.725" width="16.201" height="62.228" style="fill:rgb(189,154,255);"/>
            </g>
            <g transform="matrix(1,0,0,1,48.6034,0)">
                <rect x="39.589" y="64.725" width="16.201" height="62.228" style="fill:rgb(224,244,224);"/>
            </g>
            <g transform="matrix(1,0,0,1,64.8046,0)">
                <rect x="39.589" y="64.725" width="16.201" height="62.228" style="fill:rgb(150,223,211);"/>
            </g>
            <g transform="matrix(1,0,0,1,81.0057,0)">
                <rect x="39.589" y="64.725" width="16.201" height="62.228" style="fill:rgb(154,190,255);"/>
            </g>
            <g transform="matrix(1,0,0,1,97.2069,0)">
                <rect x="39.589" y="64.725" width="16.201" height="62.228" style="fill:rgb(249,222,129);"/>
            </g>
            <circle cx="95.826" cy="95.839" r="18.298" style="fill:rgb(74,74,74);"/>
            <path d="M95.826,68.383C110.979,68.383 123.282,80.686 123.282,95.839C123.282,110.992 110.979,123.295 95.826,123.295C80.673,123.295 68.37,110.992 68.37,95.839C68.37,80.686 80.673,68.383 95.826,68.383ZM95.826,79.609C104.783,79.609 112.056,86.882 112.056,95.839C112.056,104.796 104.783,112.069 95.826,112.069C86.868,112.069 79.596,104.796 79.596,95.839C79.596,86.882 86.868,79.609 95.826,79.609Z" style="fill:white;"/>
            <path d="M86.719,58.016L88.105,49.877C88.166,49.518 88.477,49.257 88.84,49.257C91.311,49.257 100.341,49.257 102.812,49.257C103.175,49.257 103.486,49.518 103.547,49.877L104.933,58.016L124.883,58.016L124.883,56.891C124.883,55.509 126.005,54.387 127.387,54.387L139.495,54.387C140.877,54.387 141.999,55.509 141.999,56.891L141.999,58.016L145.757,58.016C149.302,58.016 152.702,59.424 155.209,61.931C157.716,64.438 159.124,67.838 159.124,71.383C159.124,85.161 159.124,106.517 159.124,120.295C159.124,123.84 157.716,127.24 155.209,129.747C152.702,132.254 149.302,133.662 145.757,133.662C121.435,133.662 70.217,133.662 45.895,133.662C42.35,133.662 38.95,132.254 36.443,129.747C33.936,127.24 32.528,123.84 32.528,120.295C32.528,106.517 32.528,85.161 32.528,71.383C32.528,67.838 33.936,64.438 36.443,61.931C38.95,59.424 42.35,58.016 45.895,58.016L49.854,58.016L49.854,56.891C49.854,55.509 50.976,54.387 52.358,54.387L64.465,54.387C65.847,54.387 66.969,55.509 66.969,56.891L66.969,58.016L86.719,58.016ZM152.063,71.555C152.063,67.783 149.005,64.725 145.233,64.725C125.158,64.725 66.494,64.725 46.419,64.725C42.647,64.725 39.589,67.783 39.589,71.555C39.589,83.525 39.589,108.153 39.589,120.123C39.589,123.895 42.647,126.953 46.419,126.953C66.494,126.953 125.158,126.953 145.233,126.953C149.005,126.953 152.063,123.895 152.063,120.123C152.063,108.153 152.063,83.525 152.063,71.555ZM101.321,58.016L100.514,52.492C100.46,52.126 100.146,51.855 99.776,51.855C98.09,51.855 93.562,51.855 91.876,51.855C91.506,51.855 91.192,52.126 91.138,52.492L90.331,58.016L101.321,58.016Z" style="fill:white;"/>
        </g>
    </g>
</svg>
